images/icons/colored-logo-1.svg

<svg width="160" height="30" viewBox="0 0 160 30" fill="none" xmlns="http://www.w3.org/2000/svg">
<g clip-path="url(#clip0_550_1275)">
<path d="M38.5657 1.27466H42.5604V23.0637H49.1334V26.6953H38.5657V1.27466Z" fill="#726BEA"/>
<path d="M56.6813 27.0585C54.7203 27.0585 53.2193 26.5017 52.1782 25.388C51.1372 24.2743 50.6167 22.7007 50.6167 20.667V7.30309C50.6167 5.26944 51.1372 3.69578 52.1782 2.58212C53.2193 1.46845 54.7203 0.911621 56.6813 0.911621C58.6423 0.911621 60.1433 1.46845 61.1844 2.58212C62.2254 3.69578 62.7459 5.26944 62.7459 7.30309V20.667C62.7459 22.7007 62.2254 24.2743 61.1844 25.388C60.1433 26.5017 58.6423 27.0585 56.6813 27.0585ZM56.6813 23.427C58.0613 23.427 58.7513 22.5917 58.7513 20.9212V7.04888C58.7513 5.37838 58.0613 4.54313 56.6813 4.54313C55.3013 4.54313 54.6113 5.37838 54.6113 7.04888V20.9212C54.6113 22.5917 55.3013 23.427 56.6813 23.427Z" fill="#726BEA"/>
<path d="M71.1124 27.0585C69.1756 27.0585 67.6988 26.5138 66.6819 25.4243C65.6651 24.3107 65.1567 22.7249 65.1567 20.667V7.30309C65.1567 5.24523 65.6651 3.67157 66.6819 2.58212C67.6988 1.46845 69.1756 0.911621 71.1124 0.911621C73.0492 0.911621 74.526 1.46845 75.5428 2.58212C76.5597 3.67157 77.0681 5.24523 77.0681 7.30309V9.48199H73.2913V7.04888C73.2913 5.37838 72.6013 4.54313 71.2213 4.54313C69.8414 4.54313 69.1514 5.37838 69.1514 7.04888V20.9576C69.1514 22.6039 69.8414 23.427 71.2213 23.427C72.6013 23.427 73.2913 22.6039 73.2913 20.9576V15.9824H71.294V12.3509H77.0681V20.667C77.0681 22.7249 76.5597 24.3107 75.5428 25.4243C74.526 26.5138 73.0492 27.0585 71.1124 27.0585Z" fill="#726BEA"/>
<path d="M85.4069 27.0585C83.4459 27.0585 81.9449 26.5017 80.9039 25.388C79.8628 24.2743 79.3423 22.7007 79.3423 20.667V7.30309C79.3423 5.26944 79.8628 3.69578 80.9039 2.58212C81.9449 1.46845 83.4459 0.911621 85.4069 0.911621C87.368 0.911621 88.869 1.46845 89.91 2.58212C90.9511 3.69578 91.4716 5.26944 91.4716 7.30309V20.667C91.4716 22.7007 90.9511 24.2743 89.91 25.388C88.869 26.5017 87.368 27.0585 85.4069 27.0585ZM85.4069 23.427C86.7869 23.427 87.4769 22.5917 87.4769 20.9212V7.04888C87.4769 5.37838 86.7869 4.54313 85.4069 4.54313C84.027 4.54313 83.337 5.37838 83.337 7.04888V20.9212C83.337 22.5917 84.027 23.427 85.4069 23.427Z" fill="#726BEA"/>
<path d="M94.1809 1.27466H98.1756V26.6953H94.1809V1.27466Z" fill="#4F46E5"/>
<path d="M101.167 1.27466H107.05C109.035 1.27466 110.524 1.80728 111.517 2.87253C112.51 3.93777 113.006 5.49932 113.006 7.55718V10.0629C113.006 12.1208 112.51 13.6823 111.517 14.7476C110.524 15.8128 109.035 16.3454 107.05 16.3454H105.162V26.6953H101.167V1.27466ZM107.05 12.7139C107.704 12.7139 108.188 12.5323 108.503 12.1692C108.842 11.806 109.011 11.1887 109.011 10.3171V7.30298C109.011 6.43141 108.842 5.81405 108.503 5.4509C108.188 5.08775 107.704 4.90618 107.05 4.90618H105.162V12.7139H107.05Z" fill="#4F46E5"/>
<path d="M120.51 27.0585C118.574 27.0585 117.109 26.5138 116.116 25.4243C115.124 24.3107 114.627 22.7249 114.627 20.667V19.2144H118.404V20.9576C118.404 22.6039 119.094 23.427 120.474 23.427C121.152 23.427 121.66 23.2333 121.999 22.846C122.362 22.4344 122.544 21.7807 122.544 20.8849C122.544 19.8197 122.302 18.8876 121.818 18.0887C121.334 17.2655 120.438 16.285 119.13 15.1471C117.484 13.6945 116.334 12.3872 115.68 11.2251C115.027 10.0388 114.7 8.70727 114.7 7.23046C114.7 5.22102 115.208 3.67157 116.225 2.58212C117.242 1.46845 118.719 0.911621 120.656 0.911621C122.568 0.911621 124.009 1.46845 124.977 2.58212C125.97 3.67157 126.466 5.24523 126.466 7.30309V8.35623H122.689V7.04888C122.689 6.17732 122.52 5.54785 122.181 5.16049C121.842 4.74892 121.346 4.54313 120.692 4.54313C119.36 4.54313 118.695 5.35417 118.695 6.97625C118.695 7.89623 118.937 8.75569 119.421 9.55462C119.929 10.3535 120.837 11.3219 122.145 12.4598C123.815 13.9124 124.965 15.2319 125.595 16.4182C126.224 17.6045 126.539 18.9965 126.539 20.5944C126.539 22.6765 126.018 24.2743 124.977 25.388C123.96 26.5017 122.471 27.0585 120.51 27.0585Z" fill="#4F46E5"/>
<path d="M134.64 27.0584C132.703 27.0584 131.226 26.5137 130.209 25.4242C129.192 24.3106 128.684 22.7248 128.684 20.6669V1.27466H132.679V20.9575C132.679 21.829 132.848 22.4585 133.187 22.8459C133.55 23.2332 134.059 23.4269 134.712 23.4269C135.366 23.4269 135.862 23.2332 136.201 22.8459C136.564 22.4585 136.746 21.829 136.746 20.9575V1.27466H140.595V20.6669C140.595 22.7248 140.087 24.3106 139.07 25.4242C138.053 26.5137 136.576 27.0584 134.64 27.0584Z" fill="#4F46E5"/>
<path d="M143.44 1.27466H149.142L151.684 19.4685H151.756L154.299 1.27466H160V26.6953H156.223V7.44824H156.151L153.245 26.6953H149.904L146.999 7.44824H146.927V26.6953H143.44V1.27466Z" fill="#4F46E5"/>
<path d="M0 26.6953C4.91448 26.6953 8.89841 22.7113 8.89841 17.7969C8.89841 12.8824 4.91448 8.89844 0 8.89844V15.1273C1.47433 15.1273 2.66951 16.3225 2.66951 17.7969C2.66951 19.2712 1.47433 20.4664 0 20.4664V26.6953Z" fill="#726BEA"/>
<path d="M29.6614 11.8646C28.1408 11.3829 26.5215 11.123 24.8414 11.123C16.0363 11.123 8.89844 18.261 8.89844 27.066C8.89844 27.9498 8.97036 28.8168 9.10862 29.6614H19.0145C18.6609 28.8686 18.4643 27.9903 18.4643 27.066C18.4643 23.544 21.3194 20.6888 24.8414 20.6888C26.7664 20.6888 28.4921 21.5417 29.6614 22.8902V11.8646Z" fill="#A5B4FC"/>
<path d="M1.56445 0C2.30219 6.67374 7.96024 11.8646 14.8306 11.8646C21.7009 11.8646 27.359 6.67374 28.0967 0H18.5512C17.9619 1.4773 16.5181 2.52121 14.8306 2.52121C13.143 2.52121 11.6993 1.4773 11.1099 0H1.56445Z" fill="#4F46E5"/>
</g>
<defs>
<clipPath id="clip0_550_1275">
<rect width="160" height="30" fill="white"/>
</clipPath>
</defs>
</svg>

<svg width="160" height="30" fill="none" xmlns="http://www.w3.org/2000/svg"><g clip-path="url(#a)"><path d="M38.566 1.275h3.994v21.789h6.573v3.631H38.566V1.275ZM56.681 27.058c-1.96 0-3.462-.556-4.503-1.67-1.04-1.114-1.561-2.687-1.561-4.721V7.303c0-2.034.52-3.607 1.561-4.72C53.22 1.467 54.72.911 56.681.911c1.961 0 3.462.556 4.503 1.67 1.041 1.114 1.562 2.687 1.562 4.721v13.364c0 2.034-.52 3.607-1.562 4.721-1.04 1.114-2.542 1.67-4.503 1.67Zm0-3.631c1.38 0 2.07-.835 2.07-2.506V7.05c0-1.67-.69-2.506-2.07-2.506s-2.07.835-2.07 2.506V20.92c0 1.67.69 2.506 2.07 2.506ZM71.112 27.058c-1.936 0-3.413-.544-4.43-1.634-1.017-1.113-1.525-2.7-1.525-4.757V7.303c0-2.058.508-3.631 1.525-4.72 1.017-1.115 2.494-1.671 4.43-1.671 1.937 0 3.414.556 4.43 1.67 1.018 1.09 1.526 2.663 1.526 4.721v2.179h-3.777V7.049c0-1.67-.69-2.506-2.07-2.506s-2.07.835-2.07 2.506v13.909c0 1.646.69 2.469 2.07 2.469s2.07-.823 2.07-2.47v-4.975h-1.997v-3.631h5.774v8.316c0 2.058-.508 3.644-1.525 4.757-1.017 1.09-2.494 1.634-4.43 1.634ZM85.407 27.058c-1.961 0-3.462-.556-4.503-1.67-1.041-1.114-1.562-2.687-1.562-4.721V7.303c0-2.034.52-3.607 1.562-4.72 1.04-1.115 2.542-1.671 4.503-1.671 1.961 0 3.462.556 4.503 1.67 1.041 1.114 1.562 2.687 1.562 4.721v13.364c0 2.034-.52 3.607-1.562 4.721-1.041 1.114-2.542 1.67-4.503 1.67Zm0-3.631c1.38 0 2.07-.835 2.07-2.506V7.05c0-1.67-.69-2.506-2.07-2.506s-2.07.835-2.07 2.506V20.92c0 1.67.69 2.506 2.07 2.506Z" fill="#726BEA"/><path d="M94.18 1.275h3.996v25.42H94.18V1.275ZM101.167 1.275h5.883c1.985 0 3.474.532 4.467 1.598.993 1.065 1.489 2.626 1.489 4.684v2.506c0 2.058-.496 3.62-1.489 4.685-.993 1.065-2.482 1.597-4.467 1.597h-1.888v10.35h-3.995V1.275Zm5.883 11.439c.654 0 1.138-.182 1.453-.545.339-.363.508-.98.508-1.852V7.303c0-.872-.169-1.489-.508-1.852-.315-.363-.799-.545-1.453-.545h-1.888v7.808h1.888ZM120.51 27.058c-1.936 0-3.401-.544-4.394-1.634-.992-1.113-1.489-2.7-1.489-4.757v-1.453h3.777v1.744c0 1.646.69 2.469 2.07 2.469.678 0 1.186-.194 1.525-.581.363-.412.545-1.065.545-1.961 0-1.065-.242-1.997-.726-2.796-.484-.823-1.38-1.804-2.688-2.942-1.646-1.453-2.796-2.76-3.45-3.922-.653-1.186-.98-2.518-.98-3.995 0-2.009.508-3.558 1.525-4.648 1.017-1.114 2.494-1.67 4.431-1.67 1.912 0 3.353.556 4.321 1.67.993 1.09 1.489 2.663 1.489 4.721v1.053h-3.777V7.05c0-.872-.169-1.501-.508-1.889-.339-.411-.835-.617-1.489-.617-1.332 0-1.997.811-1.997 2.433 0 .92.242 1.78.726 2.579.508.799 1.416 1.767 2.724 2.905 1.67 1.452 2.82 2.772 3.45 3.958.629 1.187.944 2.579.944 4.176 0 2.082-.521 3.68-1.562 4.794-1.017 1.114-2.506 1.67-4.467 1.67ZM134.64 27.058c-1.937 0-3.414-.544-4.431-1.634-1.017-1.113-1.525-2.7-1.525-4.757V1.275h3.995v19.683c0 .871.169 1.5.508 1.888.363.387.872.58 1.525.58.654 0 1.15-.193 1.489-.58.363-.387.545-1.017.545-1.889V1.276h3.849v19.392c0 2.058-.508 3.644-1.525 4.757-1.017 1.09-2.494 1.634-4.43 1.634ZM143.44 1.275h5.702l2.542 18.193h.072l2.543-18.193H160v25.42h-3.777V7.448h-.072l-2.906 19.247h-3.341l-2.905-19.247h-.072v19.247h-3.487V1.275Z" fill="#4F46E5"/><path d="M0 26.695A8.898 8.898 0 0 0 0 8.898v6.23a2.67 2.67 0 0 1 0 5.338v6.23Z" fill="#726BEA"/><path d="M29.661 11.865a15.935 15.935 0 0 0-4.82-.742c-8.805 0-15.943 7.138-15.943 15.943 0 .884.072 1.75.21 2.595h9.907a6.377 6.377 0 0 1 10.647-6.771V11.865Z" fill="#A5B4FC"/><path d="M1.564 0c.738 6.674 6.396 11.865 13.267 11.865 6.87 0 12.528-5.191 13.266-11.865H18.55a4.006 4.006 0 0 1-7.441 0H1.564Z" fill="#4F46E5"/></g><defs><clipPath id="a"><path fill="#fff" d="M0 0h160v30H0z"/></clipPath></defs></svg>
